icons/desktop/12/svg/bookmark-fill-12.svg

<svg width="12" height="12" viewBox="0 0 12 12" fill="none" xmlns="http://www.w3.org/2000/svg">
<path d="M8.504 10.645C8.373 10.645 8.24 10.611 8.118 10.543C7.802 10.365 7.496 10.175 7.209 9.97697C6.866 9.74097 6.534 9.48697 6.223 9.21997C6.092 9.10797 5.91 9.10797 5.779 9.21997C5.467 9.48697 5.135 9.74097 4.793 9.97697C4.506 10.174 4.2 10.364 3.884 10.543C3.606 10.697 3.278 10.676 3.028 10.484C2.782 10.296 2.677 9.98997 2.755 9.68897L3.404 7.13997C2.798 6.80897 2.223 6.41597 1.695 5.97197C1.542 5.84497 1.388 5.70697 1.236 5.56297C1.017 5.35397 0.945004 5.04697 1.049 4.75997C1.156 4.46497 1.416 4.26897 1.727 4.24897L4.399 4.07597L5.288 1.84197C5.407 1.54397 5.68 1.35797 6.002 1.35797C6.324 1.35797 6.597 1.54397 6.716 1.84197L7.605 4.07597L10.277 4.24897C10.589 4.26897 10.849 4.46597 10.955 4.75997C11.059 5.04797 10.987 5.35497 10.768 5.56297C10.616 5.70797 10.462 5.84497 10.309 5.97197C9.781 6.41697 9.206 6.80897 8.6 7.13997L9.249 9.68997C9.326 9.99097 9.221 10.296 8.976 10.485C8.837 10.592 8.672 10.647 8.506 10.647L8.504 10.645Z" fill="black"/>
<path d="M5.99999 1.355C6.32099 1.355 6.59499 1.541 6.71399 1.839L7.60299 4.073L10.276 4.246C10.588 4.266 10.848 4.463 10.954 4.758C11.058 5.046 10.986 5.353 10.767 5.562C10.615 5.707 10.461 5.844 10.308 5.971C9.77999 6.416 9.20499 6.808 8.59899 7.14L9.24799 9.69C9.32499 9.991 9.21999 10.297 8.97399 10.485C8.83499 10.592 8.66999 10.647 8.50399 10.647C8.37299 10.647 8.23999 10.613 8.11799 10.545C7.80199 10.367 7.49599 10.176 7.20899 9.979C6.86599 9.743 6.53399 9.489 6.22199 9.222C6.15599 9.166 6.07799 9.138 5.99999 9.138C5.92199 9.138 5.84399 9.166 5.77799 9.222C5.46599 9.489 5.13399 9.743 4.79099 9.979C4.50399 10.176 4.19799 10.366 3.88199 10.545C3.75899 10.613 3.62599 10.647 3.49499 10.647C3.32899 10.647 3.16499 10.593 3.02599 10.485C2.77999 10.297 2.67499 9.991 2.75199 9.689L3.40099 7.139C2.79399 6.808 2.21999 6.415 1.69199 5.97C1.53899 5.843 1.38499 5.705 1.23299 5.561C1.01399 5.352 0.941991 5.045 1.04599 4.757C1.15299 4.462 1.41299 4.266 1.72399 4.245L4.39699 4.072L5.28599 1.838C5.40499 1.54 5.67899 1.354 5.99999 1.354M5.99999 0.354004C5.27199 0.354004 4.62699 0.791004 4.35699 1.468L3.70199 3.116L1.65999 3.248C0.955991 3.294 0.345991 3.753 0.105991 4.418C-0.131009 5.074 0.0409908 5.808 0.544991 6.286C0.712991 6.446 0.884991 6.599 1.05399 6.74C1.42999 7.056 1.82999 7.351 2.24899 7.618L1.78499 9.442C1.60999 10.128 1.85899 10.849 2.41999 11.279C2.72999 11.519 3.10399 11.647 3.49699 11.647C3.79899 11.647 4.10099 11.568 4.36999 11.419C4.72199 11.22 5.05299 11.014 5.35999 10.803C5.58099 10.651 5.79599 10.493 6.00199 10.332C6.20799 10.493 6.42299 10.651 6.64299 10.803C6.95099 11.015 7.28199 11.221 7.62799 11.416C7.90099 11.568 8.20299 11.647 8.50599 11.647C8.89899 11.647 9.27299 11.519 9.58599 11.277C10.145 10.849 10.394 10.128 10.218 9.441L9.75399 7.618C10.173 7.35 10.575 7.055 10.954 6.736C11.119 6.599 11.29 6.446 11.459 6.286C11.962 5.808 12.134 5.075 11.897 4.419C11.657 3.754 11.047 3.295 10.343 3.249L8.29999 3.117L7.64499 1.47C7.37499 0.793004 6.72999 0.356004 6.00199 0.356004L5.99999 0.354004Z" fill="white"/>
</svg>

<!-- This Source Code Form is subject to the terms of the Mozilla Public
   - License, v. 2.0. If a copy of the MPL was not distributed with this
   - file, You can obtain one at http://mozilla.org/MPL/2.0/. -->
<svg xmlns="http://www.w3.org/2000/svg" width="12" height="12" fill="context-fill" fill-opacity="context-fill-opacity" viewBox="0 0 12 12">
    <path d="M8.504 10.645a.8.8 0 0 1-.386-.102A12 12 0 0 1 6.223 9.22a.335.335 0 0 0-.444 0 12 12 0 0 1-1.895 1.323.77.77 0 0 1-.856-.059.75.75 0 0 1-.273-.795l.649-2.549a10.4 10.4 0 0 1-2.168-1.577.74.74 0 0 1-.187-.803.77.77 0 0 1 .678-.511l2.672-.173.889-2.234a.755.755 0 0 1 .714-.484c.322 0 .595.186.714.484l.889 2.234 2.672.173c.312.02.572.217.678.511a.74.74 0 0 1-.187.803A10.366 10.366 0 0 1 8.6 7.14l.649 2.55a.77.77 0 0 1-.743.957z" />
    <path d="M6 1.355c.321 0 .595.186.714.484l.889 2.234 2.673.173c.312.02.572.217.678.512a.75.75 0 0 1-.187.804A10.434 10.434 0 0 1 8.599 7.14l.649 2.55a.75.75 0 0 1-.274.795.77.77 0 0 1-.856.06 11.874 11.874 0 0 1-1.896-1.323A.34.34 0 0 0 6 9.138a.34.34 0 0 0-.222.084 12 12 0 0 1-1.896 1.323.8.8 0 0 1-.387.102.76.76 0 0 1-.469-.162.75.75 0 0 1-.274-.796l.649-2.55a10.3 10.3 0 0 1-2.168-1.578.75.75 0 0 1-.187-.804.77.77 0 0 1 .678-.512l2.673-.173.889-2.234A.76.76 0 0 1 6 1.354m0-1a1.76 1.76 0 0 0-1.643 1.114l-.655 1.648-2.042.132a1.78 1.78 0 0 0-1.554 1.17 1.75 1.75 0 0 0 .439 1.868q.254.241.509.454.565.476 1.195.878l-.464 1.824a1.76 1.76 0 0 0 .635 1.837c.31.24.684.368 1.077.368.302 0 .604-.079.873-.228a13 13 0 0 0 1.632-1.087q.31.242.641.471c.308.212.639.418.985.613.273.152.575.231.878.231.393 0 .767-.128 1.08-.37a1.76 1.76 0 0 0 .632-1.836l-.464-1.823a11.4 11.4 0 0 0 1.705-1.332 1.75 1.75 0 0 0 .438-1.867 1.78 1.78 0 0 0-1.554-1.17L8.3 3.117 7.645 1.47A1.76 1.76 0 0 0 6.002.356z" />
</svg>
